!!!OTL: AUF IHR BRUEDER DEUTSCHLANDS SOEHNE
!!!ARE: Europa, Mitteleuropa, Deutschland
!!!SCT: F0481
!!!YEM: Copyright 1995, estate of Helmut Schaffrath.
**kern
*ICvox
*Ivox
*M4/4
*k[]
*C:
{8G
8G
=1
4c
4c
4d
4d
=2
4e
4c
4r}
{8c
8B
=3
4.A
8A
4.d
8F
=4
2G
4r}
{8G
8G
=5
4c
4c
4d
4d
=6
4e
4c
4r}
{8c
8B
=7
4.A
8A
4.d
8F
=8
2G
4r}
{8G
8A
=9
4B
4B
4c
4c
=10
8d
8B
4B
4r}
{8d
8c
=11
4d
4d
4e
4e
=12
2f
4r}
{8G
8G
=13
4c
4c
4d
4d
=14
4e
4c
4r}
{8c
8B
=15
4A
4d
4c
4B
=16
2c
4r}
==
!!!AGN: Studenten -,  Burschenschafts - Lied, Einweihung
!!!ONB: ESAC (Essen Associative Code) Database: FINK
!!!AMT: simple quadruple
!!!AIN: vox
!!!EED: Helmut Schaffrath
!!!EEV: 1.0
*-
